X: 789
T: Pike County Breakdown
C:Trad Arr. Bill Monroe
B: jims roots
M:2/4
L:1/16
Q: 1/4=100
K:A
V:1 
|: E2 | "A"{F}[AA]AAA A2AA | {c}[ee]eee eeeA | "E"cBAc BAGB | "A"A2AA A2A{c}[ee] |
"A"[ee]e2e eeee | aaac' aaae | "G"=gfeg fdfd | "E"[e2e]e2 e2G,A, |
"A"A,CCE EFFA | AccJe efec | "E"cBAc BGGB |[1 "A"A2AA A2 :| [2"A"A2AA A4 ||
"A"A,CCE EFFA | Acce efec | "E"cBAc BAGB | "A"A2AA A2E2 |
"A"A,CCE EFFA | Acce efec | "G"=gfeg fedf |"E"J[e2e]ee e2ee  |
"A"[e2a][e2a][e2a][e2a] | [e=c'][e3=c'] [e2a]aa | "G" aaaa aaaa | "E"e2ee e2G,A, |
"A"A,CCE EFFA | AccJe efec | "E"cBAc BGGB |"A"A2AA A2AA ||
V:e2e 
e2 e2e2 | aaaa aaae | "G"=gfeg fefe | "E"{c}[e2e]ee e2ee ||
% abcbook-tune_id 6298c279db002c7cc51b5e91


% abcbook-boost 0
% abcbook-tablature 
% abcbook-transpose 
% abcbook-lastupdated 1654178426490
% abcbook-soundfonts 
% abcbook-repeats 1


